X:1
T:Title
%%score ( 1 2 ) { 3 | 4 }
L:1/8
Q:1/4=100
M:6/8
K:G
V:1 treble nm="Grand Piano, Soprano"
V:2 treble 
V:3 bass nm="Choir Pad, Let Music Break"
V:4 bass 
V:1
 [GB] [Fd]2 [EG] [DB]2 | [CE]GF [CE] [B,D]2 | z3 z G2 | [Gd] [Ge]2 [^GB] [Ac]2 | %4
w: By~John~Baptiste~Calkin * * *||||
 [CE] [ce]2 [Bd] [Ac]2 | E [Ec]2 [EB] [EA]2 | [DF] [DG]2 [FA][GB][Ac] | [Bd] [Ge]2 [Ge] [Gd]2 | %8
w: ||||
 [=Fd] [Fd]2 [Fc] [^D^d]2 | [=Fd] [G_B]2 [Gc] [^Fd]2 | [Fd]eB [G^c] [Fd]2 | [Ad]eB [=G^c] [Fd]2 | %12
w: ||||
 [GB] [Fd]2 [EG] [DB]2 | z .G2 z3 | [DF] [B,G]2 [GA]Bc | z6 | z G2- G3- | G6 | z3 z .B2 | %19
w: |||||||
 [^CG] [CG]2 [CF] [CF]2 | z3 z .B2 | [EG] [EG]2 [^CF] [CF]2 | _B, =B,2 B, ^C2 | %23
w: ||||
 ^D[K:treble] F2 E D2 | ^C F2 B,B,F | E ^D2 ^C B,2 | [GB] [Fd]2 [EG] [DB]2 | z .G2 z3 | z3 z G2 | %29
w: ||||||
 [Gd] [Ge]2 [^GB] [Ac]2 | [CE] [ce]2 [Bd] [Ac]2 | E [Ec]2 [EB] [EA]2 | [DF] [DG]2 [FA][GB][Ac] | %33
w: ||||
 [Bd] [Ge]2 [Ge] [Gd]2 | [=Fd] [Fd]2 [Fc] [^D^d]2 | [=Fd] [G_B]2 [Gc] [^Fd]2 | [Fd]eB [G^c] [Ed]2 | %37
w: ||||
 [Ad]eB [=G^c] [Fd]2 | [GB] [Fd]2 [EG] [DB]2 | z .G2 z3 | [DF] [B,G]2 [GA]Bc | %41
w: ||||
 [Gd] [Ge]2- [Ge] [DF]2- | [DF] E2- E/ z/ F2- | F3 c B2 | A G2- G =F2- | F3 c B2 | %46
w: |||||
 A G2 DE[K:bass]D | C B,2- B,3- | B,3 z3 |] %49
w: |||
V:2
 x6 | z B,2 z3 | [DF] [B,G]2 [DA]Bc | x6 | x6 | x6 | x6 | x6 | x6 | x6 | z G2 z3 | z ^G2 z3 | x6 | %13
 [CE]B,-[B,F] [CE] D2 | z3 z G2 | [Gd] [Ge]2- [Ge] [DF]2- | [DF] D2 DED | C B,2- B,/ z/ z z | %18
 [DG] [^CG]2 [CG]C-[CA] | x6 | [^CF] [CG]2 [CG]E-[EA] | x6 | x6 | x[K:treble] x5 | x6 | x6 | x6 | %27
 [CE]B,-[B,F] [CE] [B,D]2 | [DF] [B,G]2 [DA]Bc | x6 | x6 | x6 | x6 | x6 | x6 | x6 | z G2 z3 | %37
 z ^G2 z3 | x6 | [CE]B,-[B,F] [CE] D2 | z3 z G2 | x6 | z G2- G3- | G E2- E F2- | F3 z3 | %45
 z E2- E ^F2- | F3 z3[K:bass] | x6 | x6 |] %49
V:3
 D, D,2 D, D,2 | D, D,2 F, G,2 | A, G,2[K:treble] D D2 | D C2 E E2 | E,E,F, ^G, A,2 | %5
 E,[K:treble] E2 D C2 | D D2 DDC | B, C2 A, B,2 | _B, B,2 C B,2 | _B,B,G, A, A,2 | A, B,2 A,DA, | %11
 C B,2 _B, A,2 | G, A,2 G, F,2 | E, D,2 F, G,2 | DG[K:bass]D, EDC | B, A,2- A,[K:treble] C2- | %16
 C B,2 B,C[K:bass]B, | A, G,2- G,/ z/ z z | B, B,2 B,G,A, | B, B,2 _B, B,2 | _B, =B,2 B,G,A, | %21
 B, B,2 _B, B,2 | F, F,2 B, B,2 | B, B,2 B, B,2 | _B, =B,2 A, ^G,2 | B,B,F, E, ^D,2 | %26
 D, D,2 D, D,2 | D, D,2 F, G,2 | A, G,2[K:treble] D D2 | D C2 E E2 | E,E,F, ^G, A,2 | %31
 E,[K:treble] E2 D C2 | D D2 DDC | B, C2 A, B,2 | _B, B,2 C B,2 | _B,B,G, A, A,2 | A, B,2 A,DA, | %37
 C B,2 _B, A,2 | G, A,2 G, F,2 | E, D,2 F, G,2 | DGF EDC | B, A,2- A, C2- | %42
 C B,2- B,/ z/[K:treble] D2- | D C2- C C2- | C B,2- B, D2- | D C2- C C2- | C[K:bass] B,2 B,CB, | %47
 A, G,2- G,3- | G,3 z3 |] %49
V:4
 G,, G,,2 G,, G,,2 | G,, G,,2 G,, G,,2 | D, E,2 F,G,A, | .B,3 G, A,2 | A,, A,,2 A,, A,,2 | %5
 z E,F, ^G, A,2 | C B,2 A, G,2 | G, C,2 C, G,2 | z3 A, G,2 | =F, ^D,2 D, =D,2 | D, D,2 D, D,2 | %11
 D, D,2 D, D,2 | z D,2 E, B,,2 | C, G,,2 A,, B,,2 | D, .E,2 C,B,,A,, | G,, C,2- C, D,2- | %16
 D, G,2 G,, G,,2 | G,, G,,2- G,,/ z/ z z | G, E,2 E, E,2 | E, E,2 F, F,2 | F, E,2 E, ^C,2 | %21
 ^C, C,2 F, F,2 | E, ^D,2 D, E,2 | F, A,2 ^G, F,2 | E, ^D,2 D, E,2 | ^C, .F,2 F,, B,,2 | %26
 G,, G,,2 G,, G,,2 | G,, G,,2 G,, G,,2 | D, E,2 F,G,A, | .B,3 E, A,2 | A,, A,,2 A,, A,,2 | %31
 z E,F, ^G, A,2 | C B,2 A, G,2 | G, C,2 C, G,2 | z3 A, G,2 | =F, ^D,2 D, =D,2 | D, D,2 D, D,2 | %37
 D, D,2 D, D,2 | z D,2 E, B,,2 | C, G,,2 A,, B,,2 | D,E,D, C,B,,A,, | G,, C,2- C, D,2- | %42
 D, G,2- G,/ z/ G,2- | G, G,2- G, G,2- | G, G,2- G, B,,2- | B,, C,2- C, D,2- | D, G,,2- G,,3- | %47
 G,,6- | G,,3 z3 |] %49

